X:1
T:Buxtehude - Chaconne in C Minor. {Professional production full score.}
T:Ciacona in C Minor BuxWV 159
%%score { ( 1 2 3 7 ) | ( 4 6 ) | 5 }
L:1/8
Q:1/4=80
M:3/4
K:Bb
V:1 treble nm="Pipe Organ" snm="Org."
V:2 treble 
V:3 treble 
V:7 treble 
V:4 bass 
V:6 bass 
V:5 bass-8 
V:1
!fff! z c/=B/ c3 d | =B>AB>c d2- | dd c4- | cd/e/ dc/A/ =B2 |!fff! z c/=B/ c3 d | =B>AB>c d2- | %6
 dd c4- | cd/e/ dc/A/ =B2 | z =B c>dc>d | e2 Md4 | z G_AG/F/GA/G/ | F4- FG/F/ | E>FG>_A z2 | %13
 z e d4 | z G_AG/F/GA/G/ | F4- FG/F/ | E2 E>FE>F | G>DF>GF>F | z Gc>dc>d | %19
 =B>[Bd][df]>[eg][df]>[eg] | [ce]>[=Bd][ce]>[df][ce]>[df] | g2 d2 d2- | dc/=B<cd<cd/ | z df>gf>g | %24
 z z/ B<cd<cd/ | z z/ d<fg<fg/ | e3 d c2- | c2 c3 =B | z/ c/B/_A/ Gc G/=A/G/A/ | B4 _A2 | G6 | %31
 z/ g/f/e/ dg c/d/c/d/ | eE _AB/c/ MB>A | G3 _AFf- | fe/d/ e3 f | _g2 f4- | f2 e4 | d6 | G2 c4- | %39
 c2 =B4 | c4 z c/d/ | ed/c/ =BB/c/ dG/F/ | Ee/d/ cB/_A/ GG/=A/ | BA/G/ (^FA/c/) =B/D/G/=F/ | %44
 Ec/d/ ee/_d/ cc/d/ | =BB/c/ BB/c/ dc/B/ | ef/g/ e=B/d/ G/c/B/A/ | =B/c/B/A/ G/e/d/c/ B/d/c/B/ | %48
 c/d/c/d/ e/f/g/e/ _a/=B/c/d/ | =B/c/B/c/ d/e/d/e/ f/_a/g/f/ | g/f/g/d/ e/c/f/d/ g/=B/e/c/ | %51
 =B/c/B/A/ B/c/d/A/ B/d/c/B/ | e4 f2 | g4- g/gf/ | e/f/e/f/ e/g/f/_a/ g/a/g/a/ | %55
 f/g/f/g/ f/g/f/g/ f/g/f/g/ | e/f/e/g/ c/e/d/f/ d/e/d/c/ | c/d/c/d/ =B/c/B/c/ d2- | %58
 d/d/c/=B/ c/d/c/d/ c/d/c/B/ | c/d/c/d/ c/d/c/d/ c/d/c/=B/ | z/ =B/c/B/ c/G/e/d/ c/e/d/c/ | %61
 =Bd/c/ de fg/f/- | fe/d/ e4 | z/ A/c/B/ A/G/^F/G/ z/ E/=F/G/ | E[eg]/[df]/ [ce]2 x2 | %65
 (G/>A/=B/>c/) (d/>c/B/>A/) G/c/F/d/ | E/G/F/_A/ G/c/=B/d/ c/d/e/=A/ | %67
 =B/A/B/c/ B/c/B/c/ B/d/c/B/ | c2 z2 z c | =B3 c d2 | z2 c=B c2 | FG_AG/F<MED/ | %72
 z g/f/ e/d/c/B/ z/ e/_d/c/ | =B>c d>e f/d/e/f/ | e3 f g2 | f2 e2 d2 | g>ed>fe>d | e2 d3 c | %78
 B4 c2- | cB A d2 c | =B2 z Bcd | e2 z2 z e/f/ | g2 z2 z d/f/ | e>fed- dc | B>cB>cd>B | %85
 e2 z2 z e/f/ | g2 z2 z d/f/ | [ce]>[df][ce][=Bd-] dc | =B>cB>cd>B | e2 z2 z2 | d2 z2 z2 | %91
 d2 z2 c2 | =B2 z2 z2 | c2 z2 z d | =B2 z2 z2 | e2 z2 z2 | d2 z2 z2 | %97
 z/ c/B/_A/ G/F/E/D/ C/D/E/F/ | d2 z2 [df][df] | e2 z2 z2 | f6 | e2 G/F/E/D/ C/D/E/F/ | %102
 d2 z2 [df][df] | e2 z2 z2 | f6 | e/c/G/E/ g/e/c/G/ c'/_a/f/c/ | =b/g/d/=B/ g/e/c/G/ B/G/D/=B,/ | %107
 e2 z2 z/ g/f/e/ | f/e/d/c/ =B/A/G/^F/ B2 | e/c/G/E/ g/e/c/G/ c'/_a/f/c/ | %110
 =b/g/d/=B/ g/e/c/G/ B/G/D/=B,/ | e2 z2 z/ g/f/e/ | f/e/d/c/ =B/A/G/^F/ PB2 | c2 z dc>d | %114
 c<=B- Bgf>g | (f<e-) e_ag>a | (g<f) z d(d/e/f) | (f<e-) edc>d | c<=B- Bgf>g | (f<e-) e_ag>a | %120
 (g<f) z dd/e/f |[M:9/8][Q:1/4=70] [ce]3"_arpeggiando" z/ e/z/f/z/g/ z/ c/z/d/z/e/ | %122
 z/ e/z/f/z/g/ z/ =B/z/c/z/d/ z/ d/z/e/z/f/ | z/ d/z/e/z/f/ z/ e/z/f/z/g/[Q:1/4=75] z/ c/z/d/z/e/ | %124
[Q:1/4=80] z/ A/z/=B/z/c/[Q:1/4=83] z/ B/z/c/z/A/[Q:1/4=85] z/ B/z/c/z/d/ | %125
[Q:1/4=93] z/ d/z/e/z/f/[Q:1/4=95] z/ e/z/f/z/g/[Q:1/4=98] z/ c/z/d/z/e/ | %126
[Q:1/4=100] z/ e/z/f/z/g/ z/ =B/z/c/z/d/ z/ d/z/e/z/f/ | %127
[Q:1/4=110] z/ d/z/e/z/f/ z/ e/z/f/z/g/ z/ c/z/d/z/e/ | %128
[Q:1/4=120] z/ A/z/=B/z/c/ z/ B/z/c/z/A/ z/ B/z/c/z/!breath!d/ |[Q:1/4=100] z G2 z G2 z c2 | %130
 z c2 z =B2 z d2 | z G2 z G2 z G2 | z G2 z ^F2 z G2 | z G2 z G2 z c2 | z c2 z =B2 z d2 | %135
 z G2 z G2 z G2 | z G2 z ^F2[Q:1/4=70] z G2 |[M:3/4][Q:1/4=100] g/f/e/d/ e/d/c/B/ _A/G/F/E/ | %138
 z2 d2 z2 | z2 e2 z2 | z2 d2 z2 | g/f/e/d/ e/d/c/B/ _A/G/F/E/ | z2 d2 z2 | z2 e2 z2 | %144
 z2 d2 z2[Q:1/4=80] | z2 e2 f2 | e2 d2 z f- | f2 e2 g2- | gf f4 | z2 e2 f2 | e2 d2 z f- | %151
 f2 e2 c2- | c3[Q:1/4=60][Q:1/4=40] d P=B2[Q:1/4=20] | !fermata!c6 |] %154
V:2
 z E/D/ E>D C2 | D4- D/E/F | E3 D C2 | D6 | z E/D/ E>D C2 | D4- D/E/F | E3 D C2 | D6 | z F E>FE>F | %9
 G4- GF | E4 z2 | z2 z2 D2 | C>DE>F F>G | G4- GF | E4 z2 | z2 z2 D2 | C2 z2 z2 | x2 D>ED>D | %18
 C2 C4 | D2 =B,4 | C4 z2 | z DF>GF>G | E>DE>F G2 | F2 D4 | C>DE>FE>F | G>=B,D>ED>E | C6 | D6 | %28
 C4 z2 | z/ G/F/E/ DG C/D/C/D/ | E4 E2 | D3 B, C2 | B,2 C2 D2- | DC/B,/ C3 _D | B,3 C/_D/ C=D/E/ | %35
 E4 D2- | D2 C4 | D6- | D2 C3 D | E2 D4 | CDEC _A2 | G3 G =B,2 | C3 D E2 | D4 x2 | %44
 CE/D/ CF/G/ _AE/F/ | GF/E/ DD/C/ x2 | x6 | x6 | x6 | x4 D/F/E/D/ | E/D/E/=B,/ C/E/D/F/ E/G/C/E/ | %51
 D/E/D/C/ x4 | z/ =B/c/B/ c/B/c/B/ c/B/c/B/ | c/=B/c/B/ c/B/c/B/ G2- | G6 | =A4 G2- | G4 z2 | %57
 G4- G/G/F/G/ | E3 F G2 | F4 F2 | E3 C C2 | G=B/A/ Bc d2- | dc/=B/ c4 | D4 D2 | %64
 C2- C/=B,/C/D/ C/>D/E/>F/ | x6 | CDEDEC | D/C/D/E/ D/E/D/E/ D/F/E/D/ | E2 z2 C2 | D4 z D | %70
 E=B,CD C2- | C3 D =B,2 | C2 z2 _A/G/F/E/ | G/D/G/A/ =B/G/B/c/ d/B/c/d/ | c4 GA | =B>d- dc- cB | %76
 z2 z2 [GB]2 | c2 A4- | A2 G4 | ^FG- G2 F2 | G2 z [DG][EA][F=B] | [Gc]2 z2 z/ c3/2 | %82
 =B2 z2 z/ G3/2 | G>_AGF G2 | F>GF>ED>G | [Gc]2 z2 z/ c3/2 | =B2 z2 z/ G3/2 | G>_AGF G2 | %88
 F>GF>ED>F | G2 z2 z2 | G2 z2 z2 | E2 z2 E2 | D2 z2 z2 | C2 z2 z F | D2 z2 z2 | C2 z2 z2 | %96
 =B,2 z2 z2 | [CE]2 z2 x2 | G2 D/E/F/G/ z/ G/ z/ G/ | G2 z2 z2 | F4 D2 | C2 x4 | %102
 G2 D/E/F/G/ z/ G/ z/ G/ | G2 z2 z2 | F4 PD2 | x6 | x6 | G2 z2 x2 | x4 D2 | x6 | x6 | G2 z2 x2 | %112
 x4 D2 | E2 z2 F2 | z2 G4 | z2 MGF G2 | z2 F2 G2 | z2 z2 F2 | z2 G4 | z2 MGF G2 | z2 F2 G2 | %121
[M:9/8] G3 CDE EFG | CDE DEF =B,CD | =B,CD CDE x3 | x9 | x3 CDE EFG | CDE DEF =B,CD | %127
 =B,CD CDE x3 | x9 | E2 E E2 E E2 F | G2 G G2 G G2 F | E2 E E2 E C2 C | =B,2 C D2 D D2 D | %133
 E2 E E2 E E2 F | G2 G G2 G G2 F | E2 E E2 E C2 C | =B,2 C D2 D D2 !fermata!D |[M:3/4] z2 x2 z2 | %138
 z2 G2 z2 | z2 G2 z2 | z2 G2 z2 | z2 x2 z2 | z2 G2 z2 | z2 G2 z2 | z2 G2 z2 | z2 G2 F2 | G6 | G6 | %148
 A4 G2 | z2 G2 F2 | G6 | G4 z C | D6 | G6 |] %154
V:3
 z2 G2 F2 | G6- | G4- G_A | F4- FG | z2 G2 F2 | G6- | G4- G_A | F4- FG | x6 | x6 | x6 | x6 | x6 | %13
 x6 | x6 | x6 | x6 | x6 | E2 x4 | x6 | x6 | =B4 z2 | x6 | =B6 | e2 z2 z2 | =B4 z2 | %26
 z z/ D/ E>F G>_A | F>E F>GF>G | E4 z2 | x6 | x6 | x6 | x6 | x6 | x6 | x2 z cB>_A | G3 _AGA | %37
 F2 G_AGF | E4 F2 | G4 F2 | EFGE x2 | x6 | x6 | x6 | x6 | x6 | x6 | x6 | x6 | x6 | x6 | x6 | x6 | %53
 x4 dd- | ddcc c2 | dddd dd | c2 x4 | x6 | x6 | x6 | x6 | x6 | x6 | x6 | x6 | x6 | x6 | x6 | %68
 x4 F2 | G6 | G2 F2 G_A | x6 | E2 x4 | x6 | x6 | x6 | x6 | x6 | x6 | x6 | x6 | x6 | d2 x4 | %83
 c>dc>=B x2 | x6 | x6 | d2 x4 | x6 | x6 | x6 | x6 | G2 z2 G2 | F2 z2 z2 | E2 z2 z _A | G2 z2 z2 | %95
 G2 z2 z2 | G2 z2 z2 | x2 z2 x2 | =B2 z2 x2 | c2 x4 | c4 =B2 | z/ c/B/_A/ x4 | =B2 z2 x2 | c2 x4 | %104
 c4 P=B2 | x6 | x6 | c2 z2 x2 | x4 G2 | x6 | x6 | c2 z2 x2 | x4 G2 | G2 x4 | x6 | x6 | x2 =B4 | %117
 x6 | x6 | x6 | x2 =B4 |[M:9/8] x9 | x9 | x9 | x9 | x9 | x9 | x9 | x9 | x9 | x9 | x9 | x9 | x9 | %134
 x9 | x9 | x9 |[M:3/4] z2 x2 z2 | z2 =B2 z2 | z2 c2 z2 | z2 =B2 z2 | z2 x2 z2 | z2 =B2 z2 | %143
 z2 c2 z2 | z2 =B2 z2 | z2 c4- | c2 =B2 z d- | d2 c4- | c4 =B2 | z2 c4- | c2 =B2 z d- | d2 c2 G2 | %152
 F=E MF3 G | =E6 |] %154
V:4
 x6 | x6 | x6 | x6 | x6 | x6 | x6 | x6 | z D C4 | =B,>CB,>C D2- | D2 C4- | C>C=B,>A, B,2 | z2 C4- | %13
 C>C=B,>C D2- | D2 C4- | C>C=B,>A, B,2 | z G,C>DC>D | =B,2 x4 | x2 _A,2 G,2 | F,4 G,2- | G,4 z2 | %21
 x6 | x6 | x6 | x6 | x6 | x6 | x6 | x6 | x6 | z/ C/B,/_A,/ G,C G,/=A,/G,/A,/ | B,3 G, _A,2 | %32
 G,4 F,2 | E,4 _A,2 | G,4 _A,2 | =A,2 B,4 | E,3 F, G,2 | _A,2 G,4- | G,4 F,2 | E,F, G,4- | G,4 z2 | %41
 x6 | x6 | x4 G,2 | x6 | x4 =B,A,/G,/ | CD/E/ CD/F/ E/E/D/C/ | D/E/D/C/ =B,/C/B,/A,/ G,/F,/E,/D,/ | %48
 E,/F,/E,/D,/ C,/D,/E,/C,/ F,/G,/_A,/F,/ | G,/A,/G,/A,/ =B,/C/B,/C/ x2 | x6 | %51
 x2[I:staff -1] D/[I:staff +1]A,/=B,/^F,/ G,/B,/A,/G,/ | C4- CD | E2 D4 | E3 D C2- | C3 A, =B,2 | %56
 C4- CD | E2 D4 | G,2 _A,2 [G,C]2 | [=B,D]4 [B,D]2 | C2 z2 _A,2 | G,G, F,/E,/D,/C,/ =B,,>B,, | %62
 C,C- C/C/_B,/C/ _A,/B,/A,/G,/ | =A,4 =B,2 | C,2 z2 z C | =B,A,B,G,A,B, | x6 | x6 | x6 | x6 | x6 | %71
 x6 | x6 | x6 | z/ =B,/C/D/ C/D/C/D/ E/D/C/E/ | D/C/D/=B,/ C/G,/_A,/E,/ F,/D,/G,/G,,/ | z2 z2 B,2 | %77
 C2 D4- | D4 C2 | D6- | D2 z F,E,D, | C,/C,/E,/G,/ C/G,/E,/C,/ _A,2 | %82
 z/ G,/=B,/D/[I:staff -1] G/[I:staff +1]D/B,/G,/ B,2 | C>=B,C>D E2 | D>ED>C=B,>G, | %85
 C,/C,/E,/G,/ C/G,/E,/C,/ _A,2 | z/ G,/=B,/D/[I:staff -1] G/[I:staff +1]D/B,/G,/ B,2 | %87
 C>=B,C>D E2 | D>ED>C=B,>G, | C2 z2 z2 | =B,2 z2 z2 | x6 | x6 | x6 | x6 | x6 | x6 | x6 | %98
 G,/A,/=B,/C/ x2 B,2 | C2 z2 z2 | x6 | x6 | G,/A,/=B,/C/ x2 B,2 | C2 z2 z2 | x6 | %105
 C,/E,/G,/C/ E,/G,/C/[I:staff -1]E/[I:staff +1] _A,/C/[I:staff -1]F/_A/ | %106
[I:staff +1] G,/=B,/D/[I:staff -1]G/[I:staff +1] E,/G,/C/[I:staff -1]E/[I:staff +1] G,,/=B,,/D,/G,/ | %107
 C,/E,/G,/C/ C,/_A,/D,/F,/ E,/E,/D,/C,/ | D,/G,/F,/E,/ D,/C,/=B,,/A,,/ G,,/F,/E,/D,/ | %109
 C,/E,/G,/C/ E,/G,/C/[I:staff -1]E/[I:staff +1] _A,/C/[I:staff -1]F/_A/ | %110
[I:staff +1] G,/=B,/D/[I:staff -1]G/[I:staff +1] E,/G,/C/[I:staff -1]E/[I:staff +1] G,,/=B,,/D,/G,/ | %111
 C,/E,/G,/C/ C,/_A,/D,/F,/ E,/E,/D,/C,/ | D,/G,/F,/E,/ D,/C,/=B,,/A,,/ G,,/F,/E,/D,/ | C,2 z2 C2 | %114
 z2 D4 | z2 C4 | z2 D4 | z2 C4 | z2 D4 | z2 C4 | z2 D4 |[M:9/8] C3 x6 | x9 | x6 A,=B,C | %124
 ^F,G,A, G,A,F, G,A,=B, | =B,CD x6 | x9 | x6 A,=B,C | ^F,G,A, G,A,F, G,A,=B, | C3 C3 C3 | %130
 E3 E3 D3- | D3 C3 G,3 | G,3 A,3 =B,3 | C3 C3 C3 | E3 E3 D3- | D3 C3 G,3 | G,3 A,3 =B,3 | %137
[M:3/4] x6 | D/C/=B,/A,/ G,/A,/B,/C/ E/G,/[I:staff -1]G/[I:staff +1]B,/ | %139
 C/=B,/C/B,/ C/B,/C/B,/ C/B,/C/^F,/ | G,/^F,/G,/F,/ G,/F,/G,/F,/ G,/F,/G,/G,,/ | x6 | %142
 D/C/=B,/A,/ G,/A,/B,/C/ E/G,/[I:staff -1]G/[I:staff +1]B,/ | C/=B,/C/B,/ C/B,/C/B,/ C/B,/C/^F,/ | %144
 G,/^F,/G,/F,/ G,/F,/G,/F,/ G,/F,/G,/G,,/ | z2 C4- | C2 D4 | G,6 | z2 D4 | z2 E2 C2- | C2 D4 | %151
 G,6 | TA,4 G,2 | !fermata!G,6 |] %154
V:5
 C,4 _A,2 | G,4 =B,,2 | C,4 E,2 | D,4 G,,2 | C,4 _A,2 | G,4 =B,,2 | C,4 E,2 | D,4 G,,2 | C,4 _A,2 | %9
 G,4 =B,,2 | C,4 E,2 | D,4 G,,2 | C,4 _A,2 | G,4 =B,,2 | C,4 E,2 | D,4 G,,2 | C,4 _A,2 | %17
 G,4 =B,,2 | C,4 E,2 | D,4 G,,2 | C,4 _A,2 | G,4 =B,,2 | C,4 E,2 | D,4 G,,2 | C,4 _A,2 | %25
 G,4 =B,,2 | C,4 E,2 | D,4 G,,2 | C,4 z2 | z6 | z6 | z6 | z6 | z6 | z6 | z6 | z2 z2 C,2- | %37
 C,2 =B,,4 | C,2 _A,,4 | G,,6 | C,,4 z2 | z6 | z6 | z6 | z6 | z6 | z6 | z6 | z6 | z6 | z6 | z6 | %52
 z2 C,2 _A,2 | G,4 =B,,2 | C,3 D, E,2 | D,4 G,,2 | C,4 _A,2 | G,4 =B,,2 | C,3 D, E,2 | D,4 G,,2 | %60
 C,4 z2 | z6 | z6 | z6 | z6 | z6 | z6 | z6 | C>_DB,>C_A,>A, | G,>A,G,>A, =B,2 | CG,_A,D,E,C, | %71
 D,E,F,D,G,G,, | C,C,, z2 z2 | z6 | z6 | z6 | z2 z2 G,2- | G,2 ^F,4 | G,2 E,4 | D,6 | G,,4 z2 | %81
 z6 | z6 | z6 | z6 | z6 | z6 | z6 | z6 | z C,E,C,_A,F, | G,G,,=B,,G,,D,B,, | C,=B,,C,D,E,C, | %92
 D,G,,D,G,,G,G,, | C,C,,CG,_A,F, | G,G,,=B,G,DB, | CC,E,C,G,C, | G,G,,=B,,G,,D,G,, | z6 | z6 | %99
 z z/ =B,,/ C,/E,/D,/F,/ E,/G,/C,/E,/ | D,/E,/D,/E,/ D,/E,/D, G,G,, | z6 | z6 | %103
 z z/ =B,,/ C,/E,/D,/F,/ E,/G,/C,/E,/ | D,/E,/D,/E,/ D,/E,/D, G,G,, | z6 | z6 | z6 | z6 | z6 | z6 | %111
 z6 | z6 | z2 C,2 _A,2 | z2 G,2 =B,,2 | z2 C,2 E,2 | z2 D,2 G,,2 | z2 C,2 _A,2 | z2 G,2 =B,,2 | %119
 z2 C,2 E,2 | z2 D,2 G,,2 |[M:9/8] C,3 z3 z3 | z9 | z9 | z9 | z9 | z9 | z9 | z9 | z3 C,3 _A,3 | %130
 z3 G,3 =B,,3 | z3 C,3 E,3 | z3 D,3 G,,3 | z3 C,3 _A,3 | z3 G,3 =B,,3 | z3 C,3 E,3 | z3 D,3 G,,3 | %137
[M:3/4] z6 | z6 | z6 | z6 | z6 | z6 | z6 | z6 | z2 C,2 _A,2 | G,4 =B,,2 | C,4 E,2 | D,4 G,,2 | %149
 z2 C,2 _A,2 | G,4 =B,,2 | C,4 E,2 | D,4 G,,2 | !fermata!C,,6 |] %154
V:6
 x6 | x6 | x6 | x6 | x6 | x6 | x6 | x6 | x6 | x6 | x6 | x6 | x6 | x6 | x6 | x6 | x6 | x6 | x6 | %19
 x6 | x6 | x6 | x6 | x6 | x6 | x6 | x6 | x6 | x6 | x6 | x6 | x6 | x6 | x6 | x6 | x6 | x6 | x6 | %38
 x6 | x6 | x6 | x6 | x6 | x6 | x6 | x6 | x6 | x6 | x6 | x6 | x6 | x6 | x6 | x6 | x6 | x6 | x6 | %57
 x6 | x6 | z2 =A,2 G,2- | G,2 G,2 x2 | x6 | x6 | ^F,4 G,2 | x6 | x6 | x6 | x6 | x6 | x6 | x6 | x6 | %72
 x6 | x6 | x6 | x6 | x6 | A,6 | B,3 A, G,2 | A,G, A,4 | G,2 x4 | x6 | x6 | x6 | x6 | x6 | x6 | x6 | %88
 x6 | x6 | x6 | x6 | x6 | x6 | x6 | x6 | x6 | x6 | x6 | x6 | x6 | x6 | x6 | x6 | x6 | x6 | x6 | %107
 x6 | x6 | x6 | x6 | x6 | x6 | x6 | x6 | x6 | x6 | x6 | x6 | x6 | x6 |[M:9/8] x9 | x9 | x9 | x9 | %125
 x9 | x9 | x9 | x9 | x9 | x9 | x9 | x9 | x9 | x9 | x9 | x9 |[M:3/4] x6 | x6 | x6 | x6 | x6 | x6 | %143
 x6 | x6 | x6 | x6 | x6 | x6 | x6 | x6 | x6 | x6 | x6 |] %154
V:7
 x6 | x6 | x6 | x6 | x6 | x6 | x6 | x6 | x6 | x6 | x6 | x6 | x6 | x6 | x6 | x6 | x6 | x6 | x6 | %19
 x6 | x6 | x6 | x6 | x6 | x6 | x6 | x6 | x6 | x6 | x6 | x6 | x6 | x6 | x6 | x6 | x6 | x6 | x6 | %38
 x6 | x6 | x6 | x6 | x6 | x6 | x6 | x6 | x6 | x6 | x6 | x6 | x6 | x6 | x6 | x6 | x6 | x6 | x6 | %57
 x6 | x6 | x6 | x6 | x6 | x6 | x6 | x6 | x6 | x6 | x6 | x6 | x6 | x6 | x6 | x6 | x6 | x6 | x6 | %76
 x6 | x6 | x6 | x6 | x6 | x6 | x6 | x6 | x6 | x6 | x6 | x6 | x6 | x6 | x6 | x6 | x6 | x6 | x6 | %95
 x6 | x6 | x6 | x6 | x6 | x6 | x6 | x6 | x6 | x6 | x6 | x6 | x6 | x6 | x6 | x6 | x6 | x6 | x6 | %114
 x6 | x6 | x6 | x6 | x6 | x6 | x6 |[M:9/8] x9 | x9 | x9 | x9 | x9 | x9 | x9 | x9 | x9 | x9 | x9 | %132
 x9 | x9 | x9 | x9 | x9 |[M:3/4] z2 [CEG]2 z2 | x6 | x6 | x6 | z2 [CEG]2 z2 | x6 | x6 | x6 | x6 | %146
 x6 | x6 | x6 | x6 | x6 | x6 | x6 | C6 |] %154

